X: 14829
T: Gardener's, The
R: jig
M: 6/8
K: Bminor
c|:d2B cBA|FAc B2A|B2f fed|~e3 fdB|
dcB cBA|FAc B2A|Bcd ecA|1 B3 B2c:|2 B3 B2A||
|:B2f fed|~e3 fdB|A2e edc|ABc ecA|
B2f fed|~e3 fdB|dcB cBA|1 B3 B2A:|2 B3 B2c||

